X: 1
T: Pretty Maggie Morrissey
M: 4/4
L: 1/8
R: hornpipe
K: Gmaj
|:Bc|dBGB cAFA|G2 (3AGF GABc|dgg2 efge|dBGB A2 (3ABc|
dBGB cAFA|GDB,D GABc|dgg2 ecAF|G2 (3AGF G2:|
|:Bc|dgg2 efge|dgg2 egg2|dgg2 efge|dBGB A2 Bc|
dBGB cAFA|BGGF GABc|dgg2 ecAF|G2 (3AGF G2:|
